X:1
T: Biodag ain m'omish
C:
R:Reel
Q:232
K:A
M:4/4
L:1/8
|:d|cA ((3cde) c2Ac|B=GdG B2DB|cA ((3cde) c2Ac|B=GdB A2Ad|
cA ((3cde) c2Ac|B=GdG B2DB|cA ((3cde) c2Ac|B=GdB A2Ag|
ae ec a2ef|=gd dB g2f^g|ae ec a2ed|cA BG A2Ag|
ae ec a2ef|=gd dB g2f^g|ae ec a2ed|cA BG A2A:|
